X:60
T: Die dienende Schwester
N: Q0075O
O: Mitteleuropa, Deutschland (BRD) , Lueneburg
N: Schlusspause eingefuegt.
R: Ballade, Adelige als Dienstmagd, Tod; Kinder - Spiel, Tanz
M: 3/4
L: 1/16
K: F
C2F2C2 | C4F4E2G2 | F4z6
F2 | DDEEG4F4 | D2D2C4z2
C2 | F2F2G4F4 | A4G4
A2G2 | F2C2C4A4 | G2C2F4z2
C2 | F2F2G4F4 | A4G4
A2G2 | F2C2C4A4 | G2C2F4z4 | z6

